X:1
T:Constant Billy
M:6/8
C:
S:Chingford MM
N:
A:Chingford
O:English
R:Jig
%P:A.(AB)$^4$.A
P:A.(AB)4.A
K:G
I:speed 300
P:A
|:\
   D | GBd BGB | cde ABc | dBG cAF |1 G2 F E2 :|2 G3 GF ||\
P:B
   E | D3  G3  | ABA d3  | BAB cBc | dDF G3 |\
       DED GFG | ABA d3  | BGB cBc | dDF G2 ||
